!!!!SEGMENT: pl-cz--iii-37--001-001_bogoimski-tadeusz--aria-nolite-confidere.krn
!!!cenid: 18xx:679
!!!COM: Bogoimski, Tadeusz
!!!COM-rismID: pe30024244
!!!CDT: ~1800-~1899
!!!CNT:
!!!OTL: Aria - Nolite confidere
!!!PDT: 1839
!!!AGN: Secular; Aria
!!!SMS-siglum: PL-CZ
!!!SMS-shelfmark: III-37
!!!SMS-shelfwork: 001 W
!!!SMS-variant:
!!!SMS-altvar:
!!!NIFC-rismSourceID: 300237592
!!!NIFC-rismChildID: 300237592
!!!NIFC-islandoraID: pl-cz:38069
!!!URL-pdf-islandora: https://repozytorium.nifc.pl/islandora/object/pl-cz%3A38069/datastream/PDF/view
!!!URL-scan:
!!!ONB-nifc: UWAGA: części Arii: Nolite confidere, Regnabit Dominus, Rondo
!!!AIN: 2 clars 2 cor 2 empty 1 flt 1 organ 1 viola 2 violn
!!!key:
**kern	**kern	**kern	**dynam	**kern	**dynam	**kern	**dynam	**kern	**text	**kern	**kern	**kern	**dynam	**kern	**dynam	**kern
*part11	*part10	*part9	*part9	*part8	*part8	*part7	*part7	*part6	*part6	*part5	*part4	*part3	*part3	*part2	*part2	*part1
*staff11	*staff10	*staff9	*	*staff8	*	*staff7	*	*staff6	*staff6	*staff5	*staff4	*staff3	*	*staff2	*	*staff1
*Iorgan	*Iempty	*Iviola	*	*Ivioln	*	*Ivioln	*	*Iempty	*	*Icor	*Icor	*Iclars	*	*Iclars	*	*Iflt
*I"Organo.	*I"Baſso.	*I"Alto Viola.	*	*I"Violino IIdo	*	*I"Violino 1mo	*	*I"Baſs. Solo.	*	*I"Corno 2do in A	*I"Corno 1mo in A	*I"Clarinetto 2do in A.	*	*I"Clarinetto in A.	*	*I"Flauto
*I'org	*I'b	*I'a-vla	*	*I'Vn II	*	*I'Vn I	*	*I'B	*	*I'cor 2	*I'cor 1	*I'cl 2	*	*I'cl 1	*	*I'fl
*group5	*group4	*group3	*	*group3	*	*group3	*	*group3	*	*group2	*group2	*group1	*	*group1	*	*group1
*clefF4	*clefF4	*clefC3	*	*clefG2	*	*clefG2	*	*clefF4	*	*clefG2	*clefG2	*clefG2	*	*clefG2	*	*clefG2
*	*	*	*	*	*	*	*	*	*	*ITrd2c3	*ITrd2c3	*ITrd2c3	*	*ITrd2c3	*	*
*k[f#c#g#]	*k[f#c#g#]	*k[f#c#g#]	*	*k[f#c#g#]	*	*k[f#c#g#]	*	*k[f#c#g#]	*	*k[f#c#g#]	*k[f#c#g#]	*k[f#c#g#]	*	*k[f#c#g#]	*	*k[f#c#g#]
*A:	*A:	*A:	*	*A:	*	*A:	*	*A:	*	*A:	*A:	*A:	*	*A:	*	*A:
*M4/4	*M4/4	*M4/4	*	*M4/4	*	*M4/4	*	*M4/4	*	*M4/4	*M4/4	*M4/4	*	*M4/4	*	*M4/4
*met(c)	*met(c)	*met(c)	*	*met(c)	*	*met(c)	*	*met(c)	*	*met(c)	*met(c)	*met(c)	*	*met(c)	*	*met(c)
!	!	!	!	!	!	!	!	!LO:TX:a:t=P:problem= partia zapisana z głosem Violino	!	!	!	!	!	!	!	!
!	!	!	!	!	!	!	!	!LO:N:vis=8	!	!	!	!	!	!	!	!
!	!	!	!LO:DY:b:t=fo	!	!	!	!LO:DY:b	!LO:TX:a:t=Recitativo	!	!	!LO:TX:a:t=andante	!	!	!	!	!LO:TX:a:t=andante
!LO:TX:a:t=P:problem= partia zapisana z głosem basowym	!	!LO:TX:a:t=P:problem= Partia zapisana z głosem basowym	!	!LO:TX:a:t=P:problem= Partia zapisana z głosem basowym	!	!LO:TX:a:t=P:problem= partia zapisana z głosem basowym	!	!LO:TX:a:t=Aria.	!	!	!LO:TX:a:t=Aria	!LO:TX:a:t=P:problem= partia zapisana z głosem basowym	!LO:DY:a	!LO:TX:a:t=P:problem= partia zapisana z głosem basowym	!LO:DY:a	!LO:TX:a:t=Aria
16A\	16A\	16c#\ 16e	f	16c#/ 16e	.	16e/ 16cc#	f	16r	.	16A/	16a\	16A/	f	16cc#\	f	16ccc#\
=1	=1	=1	=1	=1	=1	=1	=1	=1	=1	=1	=1	=1	=1	=1	=1	=1
*2\right	*2\right	*2\right	*	*	*	*	*	*	*	*	*	*	*	*	*	*
!	!	!	!	!	!	!	!	!LO:TX:a:t=andante	!	!	!LO:TX:a:t=Recitt&colon;	!	!	!LO:TX:a:t=Clarinetto	!	!LO:TX:a:t=Rett
4A\	4A\	4c#\ 4e	.	4c#/ 4e	.	4e/ 4cc#	.	1r	.	4A/	4a\	4A/	.	4cc#\	.	4ccc#\
8.r	8.r	8.r	.	8.r	.	8.r	.	.	.	4r	4r	8.r	.	8.r	.	8.r
16D\	16D\	16d\ 16f#	.	16d/ 16f#	.	16f#/ 16dd	.	.	.	.	.	16f#/	.	16dd\	.	16ddd\
4D\	4D\	4d\ 4f#	.	4d/ 4f#	.	4f#/ 4dd	.	.	.	4r	4r	4f#/	.	4dd\	.	4ddd\
8.r	8.r	8.r	.	8.r	.	8.r	.	.	.	8.r	8.r	8.r	.	8.r	.	8.r
16E\	16E\	16B/ 16d	.	16B/ 16g#	.	16e/ 16ee	.	.	.	16e/	16b\	16g#\	.	16ee\	.	16ddd\
=2	=2	=2	=2	=2	=2	=2	=2	=2	=2	=2	=2	=2	=2	=2	=2	=2
4E\	4E\	4.B/ 4.d	.	4B/ 4g#	.	4.e/ 4.ee	.	1r	.	4e/	4b\	4g#\	.	4ee\	.	4eee\
8r	8r	.	.	8r	.	.	.	.	.	8r	8r	8r	.	8r	.	8r
!	!	!LO:N:vis=16	!	!	!	!	!	!	!	!	!	!	!	!	!	!
8E\	8E\	8B/ 8d	.	8d/ 8e	.	8e/ 8ee	.	.	.	8e/	8b\	8g#\	.	8ee\	.	8eee\
*tremolo	*tremolo	*tremolo	*	*tremolo	*	*tremolo	*	*	*	*tremolo	*	*	*	*	*	*
8E\L	8E\L	8B/ 8dL	.	8d/ 8eL	.	8e/ 8eeL	.	.	.	8e/L	8b\L	8g#\L	.	8ee\L	.	8eee\L
8E\	8E\	8B/ 8d	.	8d/ 8e	.	8e/ 8ee	.	.	.	8e/	8b\	8g#\	.	8ee\	.	8eee\
8E\	8E\	8B/ 8d	.	8d/ 8e	.	8e/ 8ee	.	.	.	8e/	8b\	8g#\	.	8ee\	.	8eee\
8E\J	8E\J	8B/ 8dJ	.	8d/ 8eJ	.	8e/ 8eeJ	.	.	.	8e/J	8b\J	8g#\J	.	8ee\J	.	8eee\J
*Xtremolo	*Xtremolo	*Xtremolo	*	*Xtremolo	*	*Xtremolo	*	*	*	*Xtremolo	*	*	*	*	*	*
=3	=3	=3	=3	=3	=3	=3	=3	=3	=3	=3	=3	=3	=3	=3	=3	=3
4AA/	4AA/	4c#\ 4e	.	4c#/ 4e	.	4a/	.	8r	.	4A/	4b\	4a\	.	4cc#\	.	4ccc#\
.	.	.	.	.	.	.	.	8E\	No-	.	.	.	.	.	.	.
4r	4r	4r	.	4r	.	4r	.	8B\	-li-	4r	4r	4r	.	4r	.	4r
.	.	.	.	.	.	.	.	8A\	-te	.	.	.	.	.	.	.
8.r	8.r	8.r	.	8.r	.	8.r	.	4r	.	2r	2r	8.r	.	8.r	.	8.r
!	!	!	!	!	!	!	!	!	!	!	!	!LO:TX:a:t=Violino	!	!LO:TX:a:t=Violino	!	!LO:TX:a:t=Violin
16A\	16A\	16c#\ 16e	.	16c#/ 16e	.	16c#/ 16a	.	.	.	.	.	16f#/	.	16f#\	.	16a/
!	!LO:N:vis=4	!	!	!	!	!	!	!	!	!	!	!	!	!	!	!
8A\	8A\	8c#\ 8e	.	8c#/ 8e	.	8c#/ 8a	.	8r	.	.	.	4f#/	.	4f#\	.	4a/
8r	8r	8r	.	8r	.	8r	.	16.A\	con-	.	.	.	.	.	.	.
.	.	.	.	.	.	.	.	32B\	-fi-	.	.	.	.	.	.	.
!LO:LB:g=original	!	!LO:LB:g=original	!	!	!	!LO:LB:g=original	!	!LO:LB:g=original	!	!	!	!	!	!	!	!LO:LB:g=original
=4	=4	=4	=4	=4	=4	=4	=4	=4	=4	=4	=4	=4	=4	=4	=4	=4
!	!	!	!	!	!	!	!	!	!	!LO:TX:a:t=4	!LO:TX:a:t=4.	!	!	!	!	!
4r	4r	2r	.	2r	.	2r	.	(8.d\	-de-	00r	00r	2r	.	2r	.	2r
.	.	.	.	.	.	.	.	16c#\)	.	.	.	.	.	.	.	.
8.r	8.r	.	.	.	.	.	.	4c#\	-re	.	.	.	.	.	.	.
16C#/	16C#/	.	.	.	.	.	.	.	.	.	.	.	.	.	.	.
4C#/	4C#/	8.r	.	8.r	.	8.r	.	4r	.	.	.	8.r	.	8.r	.	8.r
.	.	16c#\ 16e	.	16c#/ 16e	.	16e/ 16a	.	.	.	.	.	16f#/	.	16f#\	.	16a/
4r	4r	8c#\ 8e	.	8c#/ 8e	.	8e/ 8a	.	8r	.	.	.	4f#/	.	4f#\	.	4a/
.	.	8r	.	8r	.	8r	.	16c#\	con-	.	.	.	.	.	.	.
.	.	.	.	.	.	.	.	16e\	-fi-	.	.	.	.	.	.	.
!	!LO:LB:g=original	!	!	!LO:LB:g=original	!	!	!	!	!	!	!	!LO:LB:g=original	!	!LO:LB:g=original	!	!
=5	=5	=5	=5	=5	=5	=5	=5	=5	=5	=5	=5	=5	=5	=5	=5	=5
2r	2r	2r	.	2r	.	2r	.	8e\	-de-	.	.	2r	.	2r	.	2r
.	.	.	.	.	.	.	.	4Gn\	-re	.	.	.	.	.	.	.
.	.	.	.	.	.	.	.	16A\	in	.	.	.	.	.	.	.
.	.	.	.	.	.	.	.	16B\	prin-	.	.	.	.	.	.	.
4r	4r	4r	.	4r	.	4r	.	8A\	-ci-	.	.	4r	.	4r	.	4r
.	.	.	.	.	.	.	.	8E\	-pi-	.	.	.	.	.	.	.
.	.	.	.	.	.	.	.	8qqG/	.	.	.	.	.	.	.	.
!	!	!LO:N:vis=8	!	!LO:N:vis=8	!	!	!	!	!	!	!	!	!	!	!	!
8.r	8.r	8.r	.	8.r	.	8.r	.	8F#\	-bus	.	.	8.r	.	8.r	.	8.r
.	.	.	.	.	.	.	.	8r	.	.	.	.	.	.	.	.
16D\	16D\	16E/ 16G#	.	16d/ 16f#	.	16d/ 16f#	.	.	.	.	.	16d/	.	16d/	.	16f#/
=6	=6	=6	=6	=6	=6	=6	=6	=6	=6	=6	=6	=6	=6	=6	=6	=6
4D\	4D\	4E/ 4G#	.	4d/ 4f#	.	4d/ 4f#	.	8r	.	.	.	4d/	.	4d/	.	4f#/
.	.	.	.	.	.	.	.	4d\	in	.	.	.	.	.	.	.
4r	4r	4r	.	4r	.	4r	.	.	.	.	.	4r	.	4r	.	4r
.	.	.	.	.	.	.	.	16c#\LL	fi-	.	.	.	.	.	.	.
.	.	.	.	.	.	.	.	16B\JJ	.	.	.	.	.	.	.	.
!	!	!	!	!	!	!	!	!LO:LB:g=original	!	!	!	!	!	!	!	!
2r	2r	4r	.	2r	.	2r	.	8c#\	-li-	.	.	2r	.	2r	.	2r
.	.	.	.	.	.	.	.	16e\	-is	.	.	.	.	.	.	.
.	.	.	.	.	.	.	.	16d\	ho-	.	.	.	.	.	.	.
.	.	8.r	.	.	.	.	.	4A\	-mi-	.	.	.	.	.	.	.
.	.	16B/ 16d	.	.	.	.	.	.	.	.	.	.	.	.	.	.
.	.	.	.	.	.	.	.	16qqG#/LL	.	.	.	.	.	.	.	.
.	.	.	.	.	.	.	.	16qqB/	.	.	.	.	.	.	.	.
.	.	.	.	.	.	.	.	16qqA/JJ	.	.	.	.	.	.	.	.
=7	=7	=7	=7	=7	=7	=7	=7	=7	=7	=7	=7	=7	=7	=7	=7	=7
2r	2r	4B/ 4d	.	2r	.	2r	.	8F#\L	-ni-	.	.	2r	.	2r	.	2r
.	.	.	.	.	.	.	.	8E\J	.	.	.	.	.	.	.	.
.	.	2r	.	.	.	.	.	8E\	-um	.	.	.	.	.	.	.
.	.	.	.	.	.	.	.	2ryy	.	.	.	.	.	.	.	.
!	!	!	!	!	!	!	!	!	!	!	!	!	!	!LO:LB:g=original	!	!
4r	4r	.	.	4r	.	4r	.	.	.	.	.	4r	.	4r	.	4r
!	!	!	!	!LO:N:vis=8	!	!LO:N:vis=4.	!	!	!	!	!	!	!	!	!	!
8r	8.r	4r	.	8r	.	8r	.	.	.	.	.	8ryy	.	8.r	.	8r
16r	.	.	.	16r	.	16r	.	8r	.	.	.	16ryy	.	.	.	16r
16E\	16E\	.	.	16d/ 16e	.	16d/ 16e	.	.	.	.	.	16c#/	.	16c#/	.	16e/
!LO:LB:g=original	!	!LO:LB:g=original	!	!	!	!LO:LB:g=original	!	!	!	!	!	!LO:LB:g=original	!	!	!	!
=8	=8	=8	=8	=8	=8	=8	=8	=8	=8	=8	=8	=8	=8	=8	=8	=8
*	*	*	*	*	*	*	*	*Xtuplet	*	*	*	*	*	*	*	*
*	*	*	*	*	*	*	*	*^	*	*	*	*	*	*	*	*
4E\	4E\	1r	.	4d/ 4e	.	4d/ 4e	.	8E/L	4E\	in-	1r;	1r;	4c#/	.	4c#/	.	4e/
.	.	.	.	.	.	.	.	(8G#/	.	.	.	.	.	.	.	.	.
4r	4r	.	.	4r	.	4r	.	8B/	0ryy	.	.	.	4r	.	4r	.	4r
.	.	.	.	.	.	.	.	8A/	.	.	.	.	.	.	.	.	.
!	!	!	!	!	!	!	!	!	!	!	!	!	!LO:TX:a:t=Tempo ad libit	!	!LO:TX:a:t=Tempo ad lib&colon;	!	!
2r	2r	.	.	2r	.	2r	.	8G#/	.	.	.	.	2r	.	2r	.	2r
.	.	.	.	.	.	.	.	8B/J)	.	.	.	.	.	.	.	.	.
.	.	.	.	.	.	.	.	4d\	.	-qui-	.	.	.	.	.	.	.
1ryy	1ryy	1ryy	.	1ryy	.	1ryy	.	(12B/L	.	.	1ryy	1ryy	1ryy	.	1ryy	.	1ryy
.	.	.	.	.	.	.	.	12G#/	.	.	.	.	.	.	.	.	.
.	.	.	.	.	.	.	.	12E/J)	.	.	.	.	.	.	.	.	.
.	.	.	.	.	.	.	.	4F#\	.	-bus	.	.	.	.	.	.	.
.	.	.	.	.	.	.	.	(8E/L	.	non	.	.	.	.	.	.	.
.	.	.	.	.	.	.	.	8D/	.	.	.	.	.	.	.	.	.
.	.	.	.	.	.	.	.	8BB/	.	.	.	.	.	.	.	.	.
.	.	.	.	.	.	.	.	8AA/	.	.	.	.	.	.	.	.	.
2ryy	2ryy	2ryy	.	2ryy	.	2ryy	.	(12GG#/)	.	est	2ryy	2ryy	2ryy	.	2ryy	.	2ryy
.	.	.	.	.	.	.	.	12BB/	.	.	.	.	.	.	.	.	.
.	.	.	.	.	.	.	.	12AA/J)	.	.	.	.	.	.	.	.	.
.	.	.	.	.	.	.	.	8FF#/L	2ryy	sa-	.	.	.	.	.	.	.
.	.	.	.	.	.	.	.	8GG#/J	.	.	.	.	.	.	.	.	.
4ryy	4ryy	4ryy	.	4ryy	.	4ryy	.	4AA/	.	-lus	4ryy	4ryy	4ryy	.	4ryy	.	4ryy
*	*	*	*	*	*	*	*	*v	*v	*	*	*	*	*	*	*	*
!	!LO:LB:g=original	!	!	!LO:LB:g=original	!	!	!	!LO:LB:g=original	!	!LO:LB:g=original	!LO:LB:g=original	!	!	!	!	!
=9	=9	=9	=9	=9	=9	=9	=9	=9	=9	=9	=9	=9	=9	=9	=9	=9
*tremolo	*tremolo	*tremolo	*	*tremolo	*	*tremolo	*	*	*	*	*	*	*	*	*	*
*tremolo	*	*	*	*	*	*	*	*	*	*	*	*	*	*	*	*
*	*tremolo	*	*	*	*	*	*	*	*	*	*	*	*	*	*	*
*	*	*tremolo	*	*	*	*	*	*	*	*	*	*	*	*	*	*
*	*	*	*	*tremolo	*	*	*	*	*	*	*	*	*	*	*	*
*	*	*	*	*	*	*tremolo	*	*	*	*	*	*	*	*	*	*
!LO:TX:a:t=adlibitum	!	!	!LO:DY:b:t=p&colon;	!LO:TX:a:t=ad libitum	!LO:DY:b:t=p&colon;	!LO:TX:a:t=ad libitum \ntremolando	!LO:DY:b:t=p&colon;	!	!	!LO:TX:a:t=3.	!LO:TX:a:t=3.	!	!	!	!	!
8C#/L	8C#/L	32c# 32eLLL	p	32c# 32eLLL	p	32e 32aLLL	p	1r	.	0r	0r	2r	.	2r	.	4r
.	.	32c# 32e	.	32c# 32e	.	32e 32a	.	.	.	.	.	.	.	.	.	.
.	.	32c# 32e	.	32c# 32e	.	32e 32a	.	.	.	.	.	.	.	.	.	.
.	.	32c# 32e	.	32c# 32e	.	32e 32a	.	.	.	.	.	.	.	.	.	.
8C#/	8C#/	32c# 32e	.	32c# 32e	.	32e 32a	.	.	.	.	.	.	.	.	.	.
.	.	32c# 32e	.	32c# 32e	.	32e 32a	.	.	.	.	.	.	.	.	.	.
.	.	32c# 32e	.	32c# 32e	.	32e 32a	.	.	.	.	.	.	.	.	.	.
.	.	32c# 32e	.	32c# 32e	.	32e 32a	.	.	.	.	.	.	.	.	.	.
!	!	!	!	!	!	!	!	!	!	!	!	!	!	!	!	!LO:TX:a:t=adlibi.
8C#/	8C#/	32c# 32e	.	32c# 32e	.	32e 32a	.	.	.	.	.	.	.	.	.	4r
.	.	32c# 32e	.	32c# 32e	.	32e 32a	.	.	.	.	.	.	.	.	.	.
.	.	32c# 32e	.	32c# 32e	.	32e 32a	.	.	.	.	.	.	.	.	.	.
.	.	32c# 32e	.	32c# 32e	.	32e 32a	.	.	.	.	.	.	.	.	.	.
8C#/J	8C#/J	32c# 32e	.	32c# 32e	.	32e 32a	.	.	.	.	.	.	.	.	.	.
.	.	32c# 32e	.	32c# 32e	.	32e 32a	.	.	.	.	.	.	.	.	.	.
.	.	32c# 32e	.	32c# 32e	.	32e 32a	.	.	.	.	.	.	.	.	.	.
.	.	32c# 32e	.	32c# 32e	.	32e 32a	.	.	.	.	.	.	.	.	.	.
8C#/L	8C#/L	32c# 32e	.	32c# 32e	.	32e 32a	.	.	.	.	.	8.r	.	8.r	.	8.r
.	.	32c# 32e	.	32c# 32e	.	32e 32a	.	.	.	.	.	.	.	.	.	.
.	.	32c# 32e	.	32c# 32e	.	32e 32a	.	.	.	.	.	.	.	.	.	.
.	.	32c# 32e	.	32c# 32e	.	32e 32a	.	.	.	.	.	.	.	.	.	.
8C#/	8C#/	32c# 32e	.	32c# 32e	.	32e 32a	.	.	.	.	.	.	.	.	.	.
.	.	32c# 32e	.	32c# 32e	.	32e 32a	.	.	.	.	.	.	.	.	.	.
.	.	32c# 32e	.	32c# 32e	.	32e 32a	.	.	.	.	.	16a\	.	16a\	.	16aa\
.	.	32c# 32e	.	32c# 32e	.	32e 32a	.	.	.	.	.	.	.	.	.	.
8C#/	8C#/	32c# 32e	.	32c# 32e	.	32e 32a	.	.	.	.	.	4a\	.	4a\	.	4aa\
.	.	32c# 32e	.	32c# 32e	.	32e 32a	.	.	.	.	.	.	.	.	.	.
.	.	32c# 32e	.	32c# 32e	.	32e 32a	.	.	.	.	.	.	.	.	.	.
.	.	32c# 32e	.	32c# 32e	.	32e 32a	.	.	.	.	.	.	.	.	.	.
8C#/J	8C#/J	32c# 32e	.	32c# 32e	.	32e 32a	.	.	.	.	.	.	.	.	.	.
.	.	32c# 32e	.	32c# 32e	.	32e 32a	.	.	.	.	.	.	.	.	.	.
.	.	32c# 32e	.	32c# 32e	.	32e 32a	.	.	.	.	.	.	.	.	.	.
.	.	32c# 32eJJJ	.	32c# 32eJJJ	.	32e 32aJJJ	.	.	.	.	.	.	.	.	.	.
!	!	!	!	!	!	!	!	!	!	!	!	!	!	!	!	!LO:LB:g=original
=10	=10	=10	=10	=10	=10	=10	=10	=10	=10	=10	=10	=10	=10	=10	=10	=10
!	!	!	!	!	!	!	!	!LO:TX:a:t=ad libitum	!	!	!	!	!	!	!	!
8D/L	8D\L	1d 1f#	.	32d 32fnLLL	.	32fn 32aLLL	.	4A\	ex-	.	.	2r	.	2r	.	2r
.	.	.	.	32d 32fn	.	32fn 32a	.	.	.	.	.	.	.	.	.	.
.	.	.	.	32d 32fn	.	32fn 32a	.	.	.	.	.	.	.	.	.	.
.	.	.	.	32d 32fn	.	32fn 32a	.	.	.	.	.	.	.	.	.	.
8D/	8D\	.	.	32d 32fn	.	32fn 32a	.	.	.	.	.	.	.	.	.	.
.	.	.	.	32d 32fn	.	32fn 32a	.	.	.	.	.	.	.	.	.	.
.	.	.	.	32d 32fn	.	32fn 32a	.	.	.	.	.	.	.	.	.	.
.	.	.	.	32d 32fn	.	32fn 32a	.	.	.	.	.	.	.	.	.	.
8D/	8D\	.	.	32d 32fn	.	32fn 32a	.	8.A\	-i-	.	.	.	.	.	.	.
.	.	.	.	32d 32fn	.	32fn 32a	.	.	.	.	.	.	.	.	.	.
.	.	.	.	32d 32fn	.	32fn 32a	.	.	.	.	.	.	.	.	.	.
.	.	.	.	32d 32fn	.	32fn 32a	.	.	.	.	.	.	.	.	.	.
8D/J	8D\J	.	.	32d 32fn	.	32fn 32a	.	.	.	.	.	.	.	.	.	.
.	.	.	.	32d 32fn	.	32fn 32a	.	.	.	.	.	.	.	.	.	.
.	.	.	.	32d 32fn	.	32fn 32a	.	16A\	-bit	.	.	.	.	.	.	.
.	.	.	.	32d 32fn	.	32fn 32a	.	.	.	.	.	.	.	.	.	.
8D/L	8D\L	.	.	32d 32fn	.	32fn 32a	.	8.A\	spi-	.	.	8.r	.	8.r	.	8.r
.	.	.	.	32d 32fn	.	32fn 32a	.	.	.	.	.	.	.	.	.	.
.	.	.	.	32d 32fn	.	32fn 32a	.	.	.	.	.	.	.	.	.	.
.	.	.	.	32d 32fn	.	32fn 32a	.	.	.	.	.	.	.	.	.	.
8D/	8D\	.	.	32d 32fn	.	32fn 32a	.	.	.	.	.	.	.	.	.	.
.	.	.	.	32d 32fn	.	32fn 32a	.	.	.	.	.	.	.	.	.	.
.	.	.	.	32d 32fn	.	32fn 32a	.	16A\	-ri-	.	.	16a\	.	16a\	.	16aa\
.	.	.	.	32d 32fn	.	32fn 32a	.	.	.	.	.	.	.	.	.	.
8D/	8D\	.	.	32d 32fn	.	32fn 32a	.	4C#/	-tus	.	.	4a\	.	4a\	.	4aa\
.	.	.	.	32d 32fn	.	32fn 32a	.	.	.	.	.	.	.	.	.	.
.	.	.	.	32d 32fn	.	32fn 32a	.	.	.	.	.	.	.	.	.	.
.	.	.	.	32d 32fn	.	32fn 32a	.	.	.	.	.	.	.	.	.	.
8D/J	8D\J	.	.	32d 32fn	.	32fn 32a	.	.	.	.	.	.	.	.	.	.
.	.	.	.	32d 32fn	.	32fn 32a	.	.	.	.	.	.	.	.	.	.
.	.	.	.	32d 32fn	.	32fn 32a	.	.	.	.	.	.	.	.	.	.
.	.	.	.	32d 32fnJJJ	.	32fn 32aJJJ	.	.	.	.	.	.	.	.	.	.
!	!	!	!	!	!	!	!	!	!	!	!	!	!	!LO:LB:g=original	!	!
=11	=11	=11	=11	=11	=11	=11	=11	=11	=11	=11	=11	=11	=11	=11	=11	=11
8D#X/L	8D#X\L	32cn\ 32f#LLL	.	32cn/ 32f#XLLL	.	32f#X/ 32aLLL	.	4A\	et	1r	1r	4r	.	4r	.	4r
.	.	32cn\ 32f#	.	32cn/ 32f#X	.	32f#X/ 32a	.	.	.	.	.	.	.	.	.	.
.	.	32cn\ 32f#	.	32cn/ 32f#X	.	32f#X/ 32a	.	.	.	.	.	.	.	.	.	.
.	.	32cn\ 32f#	.	32cn/ 32f#X	.	32f#X/ 32a	.	.	.	.	.	.	.	.	.	.
8D#X/	8D#X\	32cn\ 32f#	.	32cn/ 32f#X	.	32f#X/ 32a	.	.	.	.	.	.	.	.	.	.
.	.	32cn\ 32f#	.	32cn/ 32f#X	.	32f#X/ 32a	.	.	.	.	.	.	.	.	.	.
.	.	32cn\ 32f#	.	32cn/ 32f#X	.	32f#X/ 32a	.	.	.	.	.	.	.	.	.	.
.	.	32cn\ 32f#	.	32cn/ 32f#X	.	32f#X/ 32a	.	.	.	.	.	.	.	.	.	.
8D#X/	8D#X\	32cn\ 32f#	.	32cn/ 32f#X	.	32f#X/ 32a	.	8A\	re-	.	.	8.A/L	.	8.a\L	.	8.aa\L
.	.	32cn\ 32f#	.	32cn/ 32f#X	.	32f#X/ 32a	.	.	.	.	.	.	.	.	.	.
.	.	32cn\ 32f#	.	32cn/ 32f#X	.	32f#X/ 32a	.	.	.	.	.	.	.	.	.	.
.	.	32cn\ 32f#	.	32cn/ 32f#X	.	32f#X/ 32a	.	.	.	.	.	.	.	.	.	.
8D#X/J	8D#X\J	32cn\ 32f#	.	32cn/ 32f#X	.	32f#X/ 32a	.	8A\	-ver-	.	.	.	.	.	.	.
.	.	32cn\ 32f#	.	32cn/ 32f#X	.	32f#X/ 32a	.	.	.	.	.	.	.	.	.	.
.	.	32cn\ 32f#	.	32cn/ 32f#X	.	32f#X/ 32a	.	.	.	.	.	16A/Jk	.	16a\Jk	.	16aa\Jk
.	.	32cn\ 32f#JJJ	.	32cn/ 32f#XJJJ	.	32f#X/ 32aJJJ	.	.	.	.	.	.	.	.	.	.
*Xtremolo	*Xtremolo	*Xtremolo	*	*Xtremolo	*	*Xtremolo	*	*	*	*	*	*	*	*	*	*
!	!	!	!	!	!	!	!	!	!	!	!	!	!	!	!LO:DY:b	!
4D#/	4D#\	4c\ 4f#	.	4c;/ 4f#	.	4f#;/ 4a	.	4Fn\	-te-	.	.	4cX;/	.	4ccX;\	f	4cccn;\
4r;	4r;	4r;	.	4r	.	4r	.	4F\	-tur	.	.	4r	.	4r	.	4r
!LO:LB:g=original	!	!LO:LB:g=original	!	!	!	!LO:LB:g=original	!	!	!	!	!	!LO:LB:g=original	!	!	!	!
=12	=12	=12	=12	=12	=12	=12	=12	=12	=12	=12	=12	=12	=12	=12	=12	=12
!	!	!	!LO:DY:b	!	!	!	!LO:DY:b	!	!	!	!	!	!	!	!	!
4E\	4E\	4c#\ 4e	f	4c#X/ 4e	.	4e/ 4cc#X	f	4A\	in	1r;	1r;	4r	.	4cc#X\	.	4ccc#X\
4r	4r	4r	.	4r	.	4r	.	8A\	ter-	.	.	4a;\	.	4r	.	4r;
.	.	.	.	.	.	.	.	8A\	-ram	.	.	.	.	.	.	.
!	!	!	!	!	!	!	!LO:DY:b	!LO:LB:g=original	!	!	!	!	!	!	!	!
8E\	8E\	2r	.	8d/ 8e	.	8d/ 8e	p	4.cn;\	su-	.	.	4r	.	2r;	.	2r;
8r	8r	.	.	8r	.	8r	.	.	.	.	.	.	.	.	.	.
!	!	!	!	!	!	!	!	!	!	!	!	!LO:N:vis=1	!	!	!	!
4r	4r	.	.	4r	.	4r	.	.	.	.	.	4r	.	.	.	.
.	.	.	.	.	.	.	.	8A\	-am	.	.	.	.	.	.	.
=13	=13	=13	=13	=13	=13	=13	=13	=13	=13	=13	=13	=13	=13	=13	=13	=13
!	!	!LO:TX:a:t=P:problem=brak taktu 13	!	!LO:TX:a:t=P:problem=brak taktu 13	!	!LO:TX:a:t=P:problem=brak taktu 13	!	!	!	!LO:TX:a:t=P:problem=brak taktu 13	!LO:TX:a:t=P:problem=brak taktu 13	!	!	!	!	!
2%5ryy	2%5ryy	2%5ryy	.	2%5ryy	.	2%5ryy	.	2c#X\	in	2%5ryy	2%5ryy	2%5ryy	.	2%5ryy	.	2%5ryy
.	.	.	.	.	.	.	.	(8B/L	.	.	.	.	.	.	.	.
.	.	.	.	.	.	.	.	8A/	.	.	.	.	.	.	.	.
.	.	.	.	.	.	.	.	12G#/	.	.	.	.	.	.	.	.
.	.	.	.	.	.	.	.	12F#/	.	.	.	.	.	.	.	.
.	.	.	.	.	.	.	.	12E/J)	.	.	.	.	.	.	.	.
.	.	.	.	.	.	.	.	4E;\	il-	.	.	.	.	.	.	.
.	.	.	.	.	.	.	.	12Fn/L	.	.	.	.	.	.	.	.
.	.	.	.	.	.	.	.	(12E/	.	.	.	.	.	.	.	.
.	.	.	.	.	.	.	.	12G#/	.	.	.	.	.	.	.	.
.	.	.	.	.	.	.	.	12F#X/	.	.	.	.	.	.	.	.
.	.	.	.	.	.	.	.	12E/	.	.	.	.	.	.	.	.
.	.	.	.	.	.	.	.	12D/J	.	.	.	.	.	.	.	.
.	.	.	.	.	.	.	.	12C#/L	.	.	.	.	.	.	.	.
.	.	.	.	.	.	.	.	12E/	.	.	.	.	.	.	.	.
.	.	.	.	.	.	.	.	12D/J	.	.	.	.	.	.	.	.
.	.	.	.	.	.	.	.	12BB/L)	.	.	.	.	.	.	.	.
.	.	.	.	.	.	.	.	12D/	.	.	.	.	.	.	.	.
.	.	.	.	.	.	.	.	12C#/J	.	.	.	.	.	.	.	.
.	.	.	.	.	.	.	.	4AA/	-la	.	.	.	.	.	.	.
!LO:LB:g=original	!LO:LB:g=original	!	!	!LO:LB:g=original	!	!	!	!	!	!	!	!	!	!	!	!
=14	=14	=14	=14	=14	=14	=14	=14	=14	=14	=14	=14	=14	=14	=14	=14	=14
*tremolo	*tremolo	*tremolo	*	*tremolo	*	*tremolo	*	*	*	*	*	*	*	*	*	*
!	!	!	!	!LO:TX:a:t=ad libitum	!LO:DY:b:t=p&colon;	!LO:TX:a:t=ad libitum \ntremolando	!LO:DY:b	!	!	!LO:TX:a:t=4.	!LO:TX:a:t=4	!	!	!	!	!
8A\L	8A\L	32c# 32eLLL	.	32c# 32eLLL	p	32aLLL	p	4A\	Di-	00r	00r	2r	.	2r	.	2r
.	.	32c# 32e	.	32c# 32e	.	32a	.	.	.	.	.	.	.	.	.	.
.	.	32c# 32e	.	32c# 32e	.	32a	.	.	.	.	.	.	.	.	.	.
.	.	32c# 32e	.	32c# 32e	.	32a	.	.	.	.	.	.	.	.	.	.
8A\	8A\	32c# 32e	.	32c# 32e	.	32a	.	.	.	.	.	.	.	.	.	.
.	.	32c# 32e	.	32c# 32e	.	32a	.	.	.	.	.	.	.	.	.	.
.	.	32c# 32e	.	32c# 32e	.	32a	.	.	.	.	.	.	.	.	.	.
.	.	32c# 32e	.	32c# 32e	.	32a	.	.	.	.	.	.	.	.	.	.
8A\	8A\	32c# 32e	.	32c# 32e	.	32a	.	8A\	-e	.	.	.	.	.	.	.
.	.	32c# 32e	.	32c# 32e	.	32a	.	.	.	.	.	.	.	.	.	.
.	.	32c# 32e	.	32c# 32e	.	32a	.	.	.	.	.	.	.	.	.	.
.	.	32c# 32e	.	32c# 32e	.	32a	.	.	.	.	.	.	.	.	.	.
8A\J	8A\J	32c# 32e	.	32c# 32e	.	32a	.	8A\	per	.	.	.	.	.	.	.
.	.	32c# 32e	.	32c# 32e	.	32a	.	.	.	.	.	.	.	.	.	.
.	.	32c# 32e	.	32c# 32e	.	32a	.	.	.	.	.	.	.	.	.	.
.	.	32c# 32e	.	32c# 32e	.	32a	.	.	.	.	.	.	.	.	.	.
8A\L	8A\L	32c# 32e	.	32c# 32e	.	32a	.	4.AA/	i-	.	.	8.r	.	8.r	.	8.r
.	.	32c# 32e	.	32c# 32e	.	32a	.	.	.	.	.	.	.	.	.	.
.	.	32c# 32e	.	32c# 32e	.	32a	.	.	.	.	.	.	.	.	.	.
.	.	32c# 32e	.	32c# 32e	.	32a	.	.	.	.	.	.	.	.	.	.
8A\	8A\	32c# 32e	.	32c# 32e	.	32a	.	.	.	.	.	.	.	.	.	.
.	.	32c# 32e	.	32c# 32e	.	32a	.	.	.	.	.	.	.	.	.	.
.	.	32c# 32e	.	32c# 32e	.	32a	.	.	.	.	.	16A/	.	16a\	.	16aa\
.	.	32c# 32e	.	32c# 32e	.	32a	.	.	.	.	.	.	.	.	.	.
8A\	8A\	32c# 32e	.	32c# 32e	.	32a	.	.	.	.	.	4A/	.	4a\	.	4aa\
.	.	32c# 32e	.	32c# 32e	.	32a	.	.	.	.	.	.	.	.	.	.
.	.	32c# 32e	.	32c# 32e	.	32a	.	.	.	.	.	.	.	.	.	.
.	.	32c# 32e	.	32c# 32e	.	32a	.	.	.	.	.	.	.	.	.	.
8A\J	8A\J	32c# 32e	.	32c# 32e	.	32a	.	8A\	-bunt	.	.	.	.	.	.	.
.	.	32c# 32e	.	32c# 32e	.	32a	.	.	.	.	.	.	.	.	.	.
.	.	32c# 32e	.	32c# 32e	.	32a	.	.	.	.	.	.	.	.	.	.
.	.	32c# 32eJJJ	.	32c# 32eJJJ	.	32aJJJ	.	.	.	.	.	.	.	.	.	.
!	!	!	!	!	!	!	!	!LO:LB:g=original	!	!	!	!	!	!LO:LB:g=original	!	!
=15	=15	=15	=15	=15	=15	=15	=15	=15	=15	=15	=15	=15	=15	=15	=15	=15
8Gn\L	8Gn\L	32c# 32eLLL	.	32c# 32eLLL	.	32c#/ 32aLLL	.	4A\	o-	.	.	2r	.	2r	.	2r
.	.	32c# 32e	.	32c# 32e	.	32c#/ 32a	.	.	.	.	.	.	.	.	.	.
.	.	32c# 32e	.	32c# 32e	.	32c#/ 32a	.	.	.	.	.	.	.	.	.	.
.	.	32c# 32e	.	32c# 32e	.	32c#/ 32a	.	.	.	.	.	.	.	.	.	.
8Gn\	8Gn\	32c# 32e	.	32c# 32e	.	32c#/ 32a	.	.	.	.	.	.	.	.	.	.
.	.	32c# 32e	.	32c# 32e	.	32c#/ 32a	.	.	.	.	.	.	.	.	.	.
.	.	32c# 32e	.	32c# 32e	.	32c#/ 32a	.	.	.	.	.	.	.	.	.	.
.	.	32c# 32e	.	32c# 32e	.	32c#/ 32a	.	.	.	.	.	.	.	.	.	.
8Gn\	8Gn\	32c# 32e	.	32c# 32e	.	32c#/ 32a	.	(8.A\	.	.	.	.	.	.	.	.
.	.	32c# 32e	.	32c# 32e	.	32c#/ 32a	.	.	.	.	.	.	.	.	.	.
.	.	32c# 32e	.	32c# 32e	.	32c#/ 32a	.	.	.	.	.	.	.	.	.	.
.	.	32c# 32e	.	32c# 32e	.	32c#/ 32a	.	.	.	.	.	.	.	.	.	.
8Gn\J	8Gn\J	32c# 32e	.	32c# 32e	.	32c#/ 32a	.	.	.	.	.	.	.	.	.	.
.	.	32c# 32e	.	32c# 32e	.	32c#/ 32a	.	.	.	.	.	.	.	.	.	.
.	.	32c# 32e	.	32c# 32e	.	32c#/ 32a	.	16A\)	.	.	.	.	.	.	.	.
.	.	32c# 32e	.	32c# 32e	.	32c#/ 32aJJJ	.	.	.	.	.	.	.	.	.	.
8G\L	8G\L	32c# 32e	.	32c# 32e	.	32c#/ 32aLLL	.	4.C#/	-mnes	.	.	8.r	.	8.r	.	8.r
.	.	32c# 32e	.	32c# 32e	.	32c#/ 32a	.	.	.	.	.	.	.	.	.	.
.	.	32c# 32e	.	32c# 32e	.	32c#/ 32a	.	.	.	.	.	.	.	.	.	.
.	.	32c# 32e	.	32c# 32e	.	32c#/ 32a	.	.	.	.	.	.	.	.	.	.
8G\	8G\	32c# 32e	.	32c# 32e	.	32c#/ 32a	.	.	.	.	.	.	.	.	.	.
.	.	32c# 32e	.	32c# 32e	.	32c#/ 32a	.	.	.	.	.	.	.	.	.	.
.	.	32c# 32e	.	32c# 32e	.	32c#/ 32a	.	.	.	.	.	16A/	.	16a\	.	16aa\
.	.	32c# 32e	.	32c# 32e	.	32c#/ 32a	.	.	.	.	.	.	.	.	.	.
8G\	8G\	32c# 32e	.	32c# 32e	.	32c#/ 32a	.	.	.	.	.	4A/	.	4a\	.	4aa\
.	.	32c# 32e	.	32c# 32e	.	32c#/ 32a	.	.	.	.	.	.	.	.	.	.
.	.	32c# 32e	.	32c# 32e	.	32c#/ 32a	.	.	.	.	.	.	.	.	.	.
.	.	32c# 32e	.	32c# 32e	.	32c#/ 32a	.	.	.	.	.	.	.	.	.	.
8G\J	8G\J	32c# 32e	.	32c# 32e	.	32c#/ 32a	.	8r	.	.	.	.	.	.	.	.
.	.	32c# 32e	.	32c# 32e	.	32c#/ 32a	.	.	.	.	.	.	.	.	.	.
.	.	32c# 32e	.	32c# 32e	.	32c#/ 32a	.	.	.	.	.	.	.	.	.	.
.	.	32c# 32eJJJ	.	32c# 32eJJJ	.	32c#/ 32aJJJ	.	.	.	.	.	.	.	.	.	.
!	!	!	!	!	!	!	!	!	!	!	!	!LO:LB:g=original	!	!	!	!LO:LB:g=original
=16	=16	=16	=16	=16	=16	=16	=16	=16	=16	=16	=16	=16	=16	=16	=16	=16
8F#\L	8F#\L	32d 32f#LLL	.	32d 32f#LLL	.	32f# 32aLLL	.	8.A\	co-	.	.	2r	.	2r	.	2r
.	.	32d 32f#	.	32d 32f#	.	32f# 32a	.	.	.	.	.	.	.	.	.	.
.	.	32d 32f#	.	32d 32f#	.	32f# 32a	.	.	.	.	.	.	.	.	.	.
.	.	32d 32f#	.	32d 32f#	.	32f# 32a	.	.	.	.	.	.	.	.	.	.
8F#\	8F#\	32d 32f#	.	32d 32f#	.	32f# 32a	.	.	.	.	.	.	.	.	.	.
.	.	32d 32f#	.	32d 32f#	.	32f# 32a	.	.	.	.	.	.	.	.	.	.
.	.	32d 32f#	.	32d 32f#	.	32f# 32a	.	16A\	-gi-	.	.	.	.	.	.	.
.	.	32d 32f#	.	32d 32f#	.	32f# 32a	.	.	.	.	.	.	.	.	.	.
8F#\	8F#\	32d 32f#	.	32d 32f#	.	32f# 32a	.	8A\	-ta-	.	.	.	.	.	.	.
.	.	32d 32f#	.	32d 32f#	.	32f# 32a	.	.	.	.	.	.	.	.	.	.
.	.	32d 32f#	.	32d 32f#	.	32f# 32a	.	.	.	.	.	.	.	.	.	.
.	.	32d 32f#	.	32d 32f#	.	32f# 32a	.	.	.	.	.	.	.	.	.	.
8F#\J	8F#\J	32d 32f#	.	32d 32f#	.	32f# 32a	.	8A\	-ti-	.	.	.	.	.	.	.
.	.	32d 32f#	.	32d 32f#	.	32f# 32a	.	.	.	.	.	.	.	.	.	.
.	.	32d 32f#	.	32d 32f#	.	32f# 32a	.	.	.	.	.	.	.	.	.	.
.	.	32d 32f#	.	32d 32f#	.	32f# 32a	.	.	.	.	.	.	.	.	.	.
8F#\L	8F#\L	32d 32f#	.	32d 32f#	.	32f# 32a	.	4.D\	-o	.	.	8.r	.	8.r	.	8.r
.	.	32d 32f#	.	32d 32f#	.	32f# 32a	.	.	.	.	.	.	.	.	.	.
.	.	32d 32f#	.	32d 32f#	.	32f# 32a	.	.	.	.	.	.	.	.	.	.
.	.	32d 32f#	.	32d 32f#	.	32f# 32a	.	.	.	.	.	.	.	.	.	.
8F#\	8F#\	32d 32f#	.	32d 32f#	.	32f# 32a	.	.	.	.	.	.	.	.	.	.
.	.	32d 32f#	.	32d 32f#	.	32f# 32a	.	.	.	.	.	.	.	.	.	.
.	.	32d 32f#	.	32d 32f#	.	32f# 32a	.	.	.	.	.	16A/	.	16a\	.	16aa\
.	.	32d 32f#	.	32d 32f#	.	32f# 32a	.	.	.	.	.	.	.	.	.	.
8F#\	8F#\	32d 32f#	.	32d 32f#	.	32f# 32a	.	.	.	.	.	4A/	.	4a\	.	4aa\
.	.	32d 32f#	.	32d 32f#	.	32f# 32a	.	.	.	.	.	.	.	.	.	.
.	.	32d 32f#	.	32d 32f#	.	32f# 32a	.	.	.	.	.	.	.	.	.	.
.	.	32d 32f#	.	32d 32f#	.	32f# 32a	.	.	.	.	.	.	.	.	.	.
8F#\J	8F#\J	32d 32f#	.	32d 32f#	.	32f# 32a	.	8r	.	.	.	.	.	.	.	.
.	.	32d 32f#	.	32d 32f#	.	32f# 32a	.	.	.	.	.	.	.	.	.	.
.	.	32d 32f#	.	32d 32f#	.	32f# 32a	.	.	.	.	.	.	.	.	.	.
.	.	32d 32f#JJJ	.	32d 32f#JJJ	.	32f# 32aJJJ	.	.	.	.	.	.	.	.	.	.
!LO:LB:g=original	!	!LO:LB:g=original	!	!	!	!LO:LB:g=original	!	!	!	!	!	!	!	!	!	!
=17	=17	=17	=17	=17	=17	=17	=17	=17	=17	=17	=17	=17	=17	=17	=17	=17
8Fn\L	8Fn\L	32d 32fnLLL	.	32d 32fnLLL	.	32fn 32aLLL	.	8.A\	co-	.	.	2r	.	2r	.	2r
.	.	32d 32fn	.	32d 32fn	.	32fn 32a	.	.	.	.	.	.	.	.	.	.
.	.	32d 32fn	.	32d 32fn	.	32fn 32a	.	.	.	.	.	.	.	.	.	.
.	.	32d 32fn	.	32d 32fn	.	32fn 32a	.	.	.	.	.	.	.	.	.	.
8Fn\	8Fn\	32d 32fn	.	32d 32fn	.	32fn 32a	.	.	.	.	.	.	.	.	.	.
.	.	32d 32fn	.	32d 32fn	.	32fn 32a	.	.	.	.	.	.	.	.	.	.
.	.	32d 32fn	.	32d 32fn	.	32fn 32a	.	16A\	-gi-	.	.	.	.	.	.	.
.	.	32d 32fn	.	32d 32fn	.	32fn 32a	.	.	.	.	.	.	.	.	.	.
8Fn\	8Fn\	32d 32fn	.	32d 32fn	.	32fn 32a	.	8.A\	-ta-	.	.	.	.	.	.	.
.	.	32d 32fn	.	32d 32fn	.	32fn 32a	.	.	.	.	.	.	.	.	.	.
.	.	32d 32fn	.	32d 32fn	.	32fn 32a	.	.	.	.	.	.	.	.	.	.
.	.	32d 32fn	.	32d 32fn	.	32fn 32a	.	.	.	.	.	.	.	.	.	.
8Fn\	8Fn\J	32d 32fn	.	32d 32fn	.	32fn 32a	.	.	.	.	.	.	.	.	.	.
.	.	32d 32fn	.	32d 32fn	.	32fn 32a	.	.	.	.	.	.	.	.	.	.
.	.	32d 32fn	.	32d 32fn	.	32fn 32a	.	16A\	-ti-	.	.	.	.	.	.	.
.	.	32d 32fn	.	32d 32fn	.	32fn 32a	.	.	.	.	.	.	.	.	.	.
8Fn\	8F\L	32d 32fn	.	32d 32fn	.	32fn 32a	.	4.Fn\	-o	.	.	8.r	.	8r	.	8.r
.	.	32d 32fn	.	32d 32fn	.	32fn 32a	.	.	.	.	.	.	.	.	.	.
.	.	32d 32fn	.	32d 32fn	.	32fn 32a	.	.	.	.	.	.	.	.	.	.
.	.	32d 32fn	.	32d 32fn	.	32fn 32a	.	.	.	.	.	.	.	.	.	.
8Fn\	8F\	32d 32fn	.	32d 32fn	.	32fn 32a	.	.	.	.	.	.	.	16r	.	.
.	.	32d 32fn	.	32d 32fn	.	32fn 32a	.	.	.	.	.	.	.	.	.	.
.	.	32d 32fn	.	32d 32fn	.	32fn 32a	.	.	.	.	.	16A/	.	16a\	.	16aa\
.	.	32d 32fn	.	32d 32fn	.	32fn 32a	.	.	.	.	.	.	.	.	.	.
8Fn\	8F\	32d 32fn	.	32d 32fn	.	32fn 32a	.	.	.	.	.	4A/	.	4a\	.	4aa\
.	.	32d 32fn	.	32d 32fn	.	32fn 32a	.	.	.	.	.	.	.	.	.	.
.	.	32d 32fn	.	32d 32fn	.	32fn 32a	.	.	.	.	.	.	.	.	.	.
.	.	32d 32fn	.	32d 32fn	.	32fn 32a	.	.	.	.	.	.	.	.	.	.
8Fn\J	8F\J	32d 32fn	.	32d 32fn	.	32fn 32a	.	8r	.	.	.	.	.	.	.	.
.	.	32d 32fn	.	32d 32fn	.	32fn 32a	.	.	.	.	.	.	.	.	.	.
.	.	32d 32fn	.	32d 32fn	.	32fn 32a	.	.	.	.	.	.	.	.	.	.
.	.	32d 32fnJJJ	.	32d 32fnJJJ	.	32fn 32aJJJ	.	.	.	.	.	.	.	.	.	.
!	!	!	!	!	!	!	!	!LO:LB:g=original	!	!	!	!	!	!	!	!
=18	=18	=18	=18	=18	=18	=18	=18	=18	=18	=18	=18	=18	=18	=18	=18	=18
!	!	!	!	!	!LO:DY:b	!	!LO:DY:b:t=fo	!	!	!	!	!	!	!	!	!
8Fn\L	8Fn\L	32cn\ 32e-XLLL	.	32c#/ 32e-XLLL	f	32e-X/ 32aLLL	f	2F#\	o-	1r;	1r;	4r	.	4r	.	4r
.	.	32cn\ 32e-X	.	32c#/ 32e-X	.	32e-X/ 32a	.	.	.	.	.	.	.	.	.	.
.	.	32cn\ 32e-X	.	32c#/ 32e-X	.	32e-X/ 32a	.	.	.	.	.	.	.	.	.	.
.	.	32cn\ 32e-X	.	32c#/ 32e-X	.	32e-X/ 32a	.	.	.	.	.	.	.	.	.	.
8Fn\	8Fn\	32cn\ 32e-X	.	32c#/ 32e-X	.	32e-X/ 32a	.	.	.	.	.	.	.	.	.	.
.	.	32cn\ 32e-X	.	32c#/ 32e-X	.	32e-X/ 32a	.	.	.	.	.	.	.	.	.	.
.	.	32cn\ 32e-X	.	32c#/ 32e-X	.	32e-X/ 32a	.	.	.	.	.	.	.	.	.	.
.	.	32cn\ 32e-X	.	32c#/ 32e-X	.	32e-X/ 32a	.	.	.	.	.	.	.	.	.	.
8Fn\	8Fn\	32cn\ 32e-X	.	32c#/ 32e-X	.	32e-X/ 32a	.	.	.	.	.	8.A/L	.	8.a\L	.	8.aa\L
.	.	32cn\ 32e-X	.	32c#/ 32e-X	.	32e-X/ 32a	.	.	.	.	.	.	.	.	.	.
.	.	32cn\ 32e-X	.	32c#/ 32e-X	.	32e-X/ 32a	.	.	.	.	.	.	.	.	.	.
.	.	32cn\ 32e-X	.	32c#/ 32e-X	.	32e-X/ 32a	.	.	.	.	.	.	.	.	.	.
8Fn\J	8Fn\J	32cn\ 32e-X	.	32c#/ 32e-X	.	32e-X/ 32a	.	.	.	.	.	.	.	.	.	.
.	.	32cn\ 32e-X	.	32c#/ 32e-X	.	32e-X/ 32a	.	.	.	.	.	.	.	.	.	.
.	.	32cn\ 32e-X	.	32c#/ 32e-X	.	32e-X/ 32a	.	.	.	.	.	16A/Jk	.	16a\Jk	.	16aa\Jk
.	.	32cn\ 32e-XJJJ	.	32c#/ 32e-XJJJ	.	32e-X/ 32aJJJ	.	.	.	.	.	.	.	.	.	.
*	*	*	*	*	*	*Xtremolo	*	*	*	*	*	*	*	*	*	*
*	*	*	*	*Xtremolo	*	*	*	*	*	*	*	*	*	*	*	*
*	*	*Xtremolo	*	*	*	*	*	*	*	*	*	*	*	*	*	*
*	*Xtremolo	*	*	*	*	*	*	*	*	*	*	*	*	*	*	*
*Xtremolo	*	*	*	*	*	*	*	*	*	*	*	*	*	*	*	*
*Xtremolo	*Xtremolo	*Xtremolo	*	*Xtremolo	*	*Xtremolo	*	*	*	*	*	*	*	*	*	*
4F\	4F\	4c\ 4e-	.	4c#;/ 4e-	.	4e-/ 4a	.	4f#\	.	.	.	4A/	.	4a\	.	4ffn\
4r;	4r;	4r;	.	4r	.	4r;	.	8.F#\	-nes	.	.	4r	.	4r	.	4r;
.	.	.	.	.	.	.	.	16F#\	e-	.	.	.	.	.	.	.
!	!LO:LB:g=original	!	!	!LO:LB:g=original	!	!	!	!	!	!	!	!	!	!LO:LB:g=original	!	!
=19	=19	=19	=19	=19	=19	=19	=19	=19	=19	=19	=19	=19	=19	=19	=19	=19
!	!	!	!	!	!	!	!	!	!	!LO:TX:a:t=P:problem=brak taktów 19-21	!LO:TX:a:t=P:problem=brak taktów 19-21	!	!	!	!	!
4E\	4E\	4c#X\ 4en	.	4c#X/ 4e	.	4e/ 4cc#X	.	4e;\	-o-	1ryy	1ryy	4a;\	.	4cc#;\	.	4ccc#X\
!	!	!	!	!	!	!	!	!LO:N:vis=6	!	!	!	!	!	!	!	!
4r	4r	4r;	.	4r;	.	4r	.	24d/	.	.	.	4r	.	4r	.	4r
!	!	!	!	!	!	!	!	!LO:N:vis=6	!	!	!	!	!	!	!	!
.	.	.	.	.	.	.	.	24c#/	.	.	.	.	.	.	.	.
!	!	!	!	!	!	!	!	!LO:N:vis=6	!	!	!	!	!	!	!	!
.	.	.	.	.	.	.	.	24B/	.	.	.	.	.	.	.	.
!	!	!	!	!	!	!	!	!LO:N:vis=6	!	!	!	!	!	!	!	!
.	.	.	.	.	.	.	.	24A/	.	.	.	.	.	.	.	.
!	!	!	!	!	!	!	!	!LO:N:vis=6	!	!	!	!	!	!	!	!
.	.	.	.	.	.	.	.	24G#/	.	.	.	.	.	.	.	.
!	!	!	!	!	!	!	!	!LO:N:vis=6	!	!	!	!	!	!	!	!
.	.	.	.	.	.	.	.	24F#/J	.	.	.	.	.	.	.	.
!	!	!	!	!LO:TX:b:t=d	!	!	!LO:DY:b	!	!	!	!	!	!	!	!	!
8E\	8E\	8d\ 8f#	.	8d/ 8e	.	8d/ 8e	p	4E\	.	.	.	2r	.	2r	.	2r;
8r	8r	8r	.	8r	.	8r	.	.	.	.	.	.	.	.	.	.
!	!	!	!	!	!	!	!	!LO:N:vis=6	!	!	!	!	!	!	!	!
4r	4r	4r;	.	4r	.	4r	.	24G#/L	.	.	.	.	.	.	.	.
!	!	!	!	!	!	!	!	!LO:N:vis=6	!	!	!	!	!	!	!	!
.	.	.	.	.	.	.	.	24F#/	.	.	.	.	.	.	.	.
!	!	!	!	!	!	!	!	!LO:N:vis=6	!	!	!	!	!	!	!	!
.	.	.	.	.	.	.	.	24E/	.	.	.	.	.	.	.	.
!	!	!	!	!	!	!	!	!LO:N:vis=6	!	!	!	!	!	!	!	!
.	.	.	.	.	.	.	.	24D/	.	.	.	.	.	.	.	.
!	!	!	!	!	!	!	!	!LO:N:vis=6	!	!	!	!	!	!	!	!
.	.	.	.	.	.	.	.	24C#/	.	.	.	.	.	.	.	.
!	!	!	!	!	!	!	!	!LO:N:vis=6	!	!	!	!	!	!	!	!
.	.	.	.	.	.	.	.	24BB/J	.	.	.	.	.	.	.	.
2.ryy	2.ryy	2.r;	.	2.ryy	.	2.ryy	.	4EE/	.	2.ryy	2.ryy	2.ryy	.	2.ryy	.	2.ryy
.	.	.	.	.	.	.	.	4FF#/	.	.	.	.	.	.	.	.
.	.	.	.	.	.	.	.	4GG#/	.	.	.	.	.	.	.	.
!	!	!LO:LB:g=original	!	!	!	!	!	!	!	!	!	!	!	!	!	!
=20	=20	=20	=20	=20	=20	=20	=20	=20	=20	=20	=20	=20	=20	=20	=20	=20
!	!	!	!	!	!	!	!	!	!	!	!	!LO:TX:a:t=2	!	!	!	!LO:TX:a:t=2.
4A\	4r	4r	.	4r	.	4r	.	4AA/	-rum	1r	1ryy	0r	.	1r	.	0r
!	!	!	!LO:DY:b	!	!LO:DY:b	!	!	!	!	!	!	!	!	!	!	!
4E\	4A\	4c#\ 4e	p	4c#/ 4e	p	4c#/ 4a	.	2r	.	.	.	.	.	.	.	.
4C#\	4E\	4c#\ 4e	.	4c#/ 4e	.	4c#/ 4a	.	.	.	.	.	.	.	.	.	.
4AA\	4C#\	4c#\ 4e	.	4c#/ 4e	.	4c#/ 4a	.	4r	.	.	.	.	.	.	.	.
=21	=21	=21	=21	=21	=21	=21	=21	=21	=21	=21	=21	=21	=21	=21	=21	=21
2AA/	2AA/	2c#\ 2e	.	2c#/ 2e	.	2c#/ 2a	.	1r	.	1r	1ryy	.	.	1r	.	.
2r	2r	2r	.	2r	.	2r;	.	.	.	.	.	.	.	.	.	.
==	==	==	==	==	==	==	==	==	==	==	==	==	==	==	==	==
*-	*-	*-	*-	*-	*-	*-	*-	*-	*-	*-	*-	*-	*-	*-	*-	*-
!!!system-decoration: [(g1)][(g2)][(g3)][(g4)][(g5)]
!!!ENC: Anna Matuszewska
!!!END: 2020-12-31
!!!ENC: Berenika Jozajtis
!!!END: 2020-06-26
!!!YEC: Copyright 2022 Narodowy Instytut Fryderyka Chopina (https://polishscores.org)
!!!YEM: License CC-BY-4.0 (https://creativecommons.org/licenses/by/4.0)
